zend.svg

<svg fill="currentColor" viewBox="0 0 24 24"><path d="M11.28 9.81S11.28 7 14.09 7h8.41s0 2.81-2.79 2.81zm0 3.6s0-2.81 2.81-2.81h4.22s0 2.81-2.81 2.81zm0 3.59s0-2.81 2.81-2.81h1.41s0 2.81-2.82 2.81zm-.82-2.2V17H1.58L7.3 9.21H2.4V7h9.26l-5.7 7.8z"/></svg>

<svg  viewBox="0 0 24 24" fill="currentColor"><path  d="M11.28,9.81C11.28,9.81 11.28,7 14.09,7H22.5C22.5,7 22.5,9.81 19.71,9.81H11.28M11.28,13.41C11.28,13.41 11.28,10.6 14.09,10.6H18.31C18.31,10.6 18.31,13.41 15.5,13.41H11.28M11.28,17C11.28,17 11.28,14.19 14.09,14.19H15.5C15.5,14.19 15.5,17 12.68,17H11.28M10.46,14.8V17H1.58L7.3,9.21H2.4V7H11.66L5.96,14.8H10.46Z"/></svg>
